X:1
T:Laudato Si
T:Laudato Si
T:xxx
C:xxx
%%score [ ( 1 2 ) 3 4 5 ]
L:1/8
Q:1/4=110
M:4/4
K:G
V:1 treble nm="Soprano" snm="S"
V:2 treble 
V:3 treble nm="Contralto" snm="CAlt."
V:4 treble-8 nm="Tenor" snm="T"
V:5 bass nm="Bass" snm="B"
V:1
 z8 | z8 | z8 | z8 | z8 | z8 | z2 z2 z4 | z4 z2 BA | G G2 F GFGF | GG- G4 BA | G G2 F GFGF | %11
w: |||||||Sei ge-|prie- sen du hast die Welt ge-|schaf- fen * Sei ge|prie sen für Son- ne Mond und|
w: |||||||||||
 GG- G4 BA | G G2 F GFGF | GG- G4 BA | A A2 A A2 A2 | BABA BABA | G6 z2 | z8 | z8 | z6 D2 | %20
w: Ster- ne * Sei ge|prie sen für Meer und Kon- ti-|nen- te * Sei ge-|prie- sen denn du bist|wun- * der- * bar- * He *|er|||Si-|
w: |||||||||
 EF G3 z EF | E2 G2 A2 G2 | A4 F4 | z4 z2 BA | G G2 F GFGF | GG- G4 BA | G G2 F GFGF | GG- G4 BA | %28
w: gnor * or- Lau- da-|to O mi si-|gno- re|Sei ge-|prie- sen * * den Mensch ge-|schaf- fen * * ge-|prie- sen * ist dein Bild der|Lie- be * Sei ge-|
w: ||||||||
 G G2 F GFGF | GG- G4 BA | A A2 A A2 A2 | BABA BABA | B6 GG | B3 c B2 A2 | B4 z BBA | B3 c B2 F2 | %36
w: prie- sen für je- des Volk der|Er- de * Sei ge-|prie- sen denn du bist|wun- * der- * bar- * He- *|||||
w: ||||Lau- da- to|Si O mi si-|gnor Lau- da- to|si O mi si|
 EF G3 z EF | E2 G2 A2 G2 | A4 F4 | D4 z2 BA | B8 | A7 z | G8 |] %43
w: |||||||
w: gnor * or- Lau- da-|to O mi si-|gno- *|re Sei- ge-||||
V:2
 x8 | x8 | x8 | x8 | x8 | x8 | x8 | x8 | x8 | x8 | x8 | x8 | x8 | x8 | x8 | x8 | x8 | x8 | x8 | %19
w: |||||||||||||||||||
 x8 | x8 | x8 | x8 | x8 | x8 | x8 | x8 | x8 | x8 | x8 | x8 | x8 | x8 | z6 d2 | e8- | e6 d2 | c8- | %37
w: |||||||||||||||gnor|* si|gnor|
 c6 B2 | x8 | x8 | x8 | x8 | x8 |] %43
w: ||||||
V:3
 G G2 G G3 z | G G2 G GFGF | E E2 E E3 z | E E2 E EDED | C C2 C C3 z | C C2 C CB,C^C | %6
w: Lau- da- to si|O mi si- gno- o- re- *|Lau- da- to si|O mi si- gno- * re- *|Lau- da- to si|O mi si- gno- * re- *|
w: ||||||
 D D2 D D2 z2 | D D2 D E D2 C | D D2 z z DED | DD- D4 z C | D D2 z3 ED | DD- D4 ED | D D2 z2 z ED | %13
w: Lau- da- to si|O mi si- gno- * ge-|prie- sen die Welt ge-|schaf- fen * ge-|prie- sen Mond und|Ster- ne * Sei ge-|prie- sen Kon- ti-|
w: |||||||
 CC- C4 G_E | D D2 z2 z _ED | C4 z4 | G G2 G G2 z2 | G G2 G GFGF | E E2 E E2 z2 | E E2 E EDED | %20
w: nen- te * Sei ge-|prie- sen du bist|Herr|Lau- da- to- si|O mi si- gno- * re- *|Lau- da- to si|O mi si- gno- * re- *|
w: |||||||
 C C2 C C2 z2 | C C2 C CB,C^C | D D2 D D2 z2 | D D2 D E D2 C | D D2 z z DED | DD- D4 z C | %26
w: Lau- da- to si|O mi si- gno- * re- *|Lau- da- to si|O mi si- gno- or Sei|prie- sen den Mensch ge-|schaf- fen * ge-|
w: ||||||
 D D2 z3 ED | DD- D4 ED | D D2 z2 z ED | CC- C4 G_E | D D2 z2 z _ED | C4 z4 | G G2 G G2 z2 | %33
w: prie- sen Bild der|Lie- be * Sei ge-|prie- sen Volk der|Er- de * Sei ge-|prie- sen O *|Herr||
w: ||||||Lau- da- to- si|
 G G2 G GFGF | E E2 E E2 z2 | E E2 E EDED | C C2 C C2 z2 | C C2 C CB,C^C | D D2 D D2 z2 | %39
w: ||||||
w: O mi si- gno- * re- *|Lau- da- to si|O mi si- gnor- * re- *|Lau- da- to si|O mi si- gnor- * re- *|Lau- da- to si|
 D D2 D E D2 C | _E8 | F7 z | D8 |] %43
w: ||||
w: O mi si- gnor- * ge-||||
V:4
 G2 A2 B3 z | G2 d2 B2 A2 | G2 B2 G3 z | G2 B2 G2 F2 | E2 G2 C3 z | E2 G2 A2 G2 | F6 z2 | %7
w: Dum dum ...|||||||
w: |||||||
 z2 z2 z2 A2 | B4 G2 A2 | B4 G4 | B4 G2 A2 | B4 G4 | G4 c4 | G4 B4 | A6 G2 | F4 A4 | B6 BA | %17
w: Ge-|prie- sen ge|schaf- fen|prie- sen und|Ster- ne|Kon- ti-|nen- te|Du- bist|He- er|Lau- da- to|
w: ||||||||||
 B3 c B2 A2 | G4 z BBA | B3 c B2 B2 | G4 G4 | G4 F2 E2 | F4 A4 | c4 B2 A2 | B4 G2 A2 | B4 G2 A2 | %26
w: Si O mi si|gnor Lau- da- to|si O mi si-|gnor Lau-|da- to- *|si- *|gno- or ge-|prie sen ge-|schaf- fen ge-|
w: |||||||||
 B6 GA | B6 A2 | G4 c4 | G4 B4 | A6 G2 | F4 A4 | d6 Bc | d6 d2 | G4 z GGF | G6 AB | A4 E2 F2 | %37
w: prie sen der|Lie- be|Volk der|Er- de|wun- der|ba- ar||||||
w: ||||||Lau- da- to|Si si-|gnor Lau- da- to|si si *|gnor Lau- *|
 G4 F2 E2 | F2 G2 A2 B2 | c4 A4 | c8 | c7 z | B8 |] %43
w: ||||||
w: da- to- *|Si- * * *|* Si-||||
V:5
 z8 | z8 | z8 | z8 | z8 | z8 | z8 | D,2 C,2 B,,2 A,,2 | G,,4 B,,2 D,2 | G,2 D,2 B,,4 | %10
w: |||||||Dum dum * *|||
 =F,4 B,,2 D,2 | =F,2 D,2 B,,4 | E,2 C,2 G,,2 C,2 | E,2 D,2 B,,2 G,,2 | _E,2 D,2 C,2 G,,2 | %15
w: |||||
 _E,2 D,2 E,2 F,2 | G,,2 A,,2 B,,2 D,2 | G,,2 D,2 E,2 G,2 | E,2 B,,2 E,2 D,2 | E,2 G,2 E,2 D,2 | %20
w: |||||
 C,2 E,2 C,4 | C,2 G,,2 C,2 ^C,2 | D,2 C,2 D,4 | D,2 C,2 B,,2 A,,2 | G,,4 B,,2 D,2 | %25
w: |||||
 G,2 D,2 B,,2 D,2 | =F,4 B,,2 D,2 | =F,2 D,2 B,,2 D,2 | E,2 C,2 G,,2 C,2 | E,2 D,2 C,2 G,,2 | %30
w: |||||
 _E,2 D,2 C,2 G,,2 | _E,2 D,2 E,2 F,2 | G,,2 A,,2 B,,2 D,2 | G,,2 D,2 E,2 G,2 | E,2 B,,2 E,2 D,2 | %35
w: |||||
 E,2 B,2 G,2 B,,2 | E,2 A,,2 C,4 | C,2 G,,2 C,2 ^C,2 | D,2 C,2 D,4 | D,2 B,2 C2 A,2 | G,8 | D,7 z | %42
w: |||||||
 G,8 |] %43
w: |

